src/assets/light/globe.svg

<svg height="16" viewBox="0 0 16 16" width="16" xmlns="http://www.w3.org/2000/svg"><path d="m8 1c.64258 0 1.26237.08431 1.85938.25293.59702.16406 1.15522.39876 1.67482.7041.5195.30078.9912.66537 1.415 1.09375.4284.42383.793.89551 1.0938 1.41504.3053.51953.54 1.0778.7041 1.6748.1686.59701.2529 1.2168.2529 1.85938s-.0843 1.26237-.2529 1.85938c-.1641.59702-.3988 1.15522-.7041 1.67482-.3008.5195-.6654.9935-1.0938 1.4219-.4238.4238-.8955.7884-1.415 1.0937-.5196.3008-1.0778.5355-1.67482.7041-.59701.1641-1.2168.2461-1.85938.2461s-1.26237-.082-1.85938-.2461c-.597-.1686-1.15527-.4033-1.6748-.7041-.51953-.3053-.99349-.6699-1.42187-1.0937-.42383-.4284-.78842-.9024-1.09375-1.4219-.30079-.5196-.53549-1.0755-.70411-1.66799-.16406-.597-.24609-1.21907-.24609-1.86621 0-.64258.08203-1.26237.24609-1.85938.16862-.597.40332-1.15527.70411-1.6748.30533-.51953.66992-.99121 1.09375-1.41504.42838-.42838.90234-.79297 1.42187-1.09375.51953-.30534 1.07552-.54004 1.66797-.7041.597-.16862 1.21907-.25293 1.86621-.25293zm5.5303 4.375c-.1732-.36914-.3828-.71549-.6289-1.03906-.2461-.32813-.5196-.62663-.8203-.89551-.3008-.26888-.6267-.50814-.9776-.71777-.3509-.20964-.7178-.38054-1.1006-.5127.1641.22787.3122.4694.4444.72461.1321.25521.2483.51953.3486.79297.1048.26888.1937.54232.2666.82031.0729.278.1367.55371.1914.82715zm.5947 2.625c0-.60612-.0843-1.18945-.2529-1.75h-2.4815c.0365.29167.0638.58333.0821.875.0182.28711.0273.57878.0273.875s-.0091.59017-.0273.88184c-.0183.28711-.0456.57649-.0821.86816h2.4815c.1686-.56055.2529-1.14388.2529-1.75zm-6.125 6.125c.22331 0 .43066-.0615.62207-.1846.19596-.123.37598-.2848.54004-.4853s.3099-.4261.4375-.6768c.13216-.2552.24837-.5127.34863-.7724.10026-.2598.18456-.5105.25296-.752.0683-.2415.1207-.4512.1572-.6289h-4.7168c.03646.1777.08887.3874.15723.6289s.15267.4922.25293.752c.10026.2597.21419.5172.34179.7724.13217.2507.28028.4763.44434.6768s.3418.3623.5332.4853c.19597.1231.4056.1846.62891.1846zm2.5088-4.375c.0364-.29167.0638-.58105.082-.86816.0228-.29167.0342-.58562.0342-.88184s-.0114-.58789-.0342-.875c-.0182-.29167-.0456-.58333-.082-.875h-5.01759c-.03646.29167-.06608.58333-.08887.875-.01823.28711-.02734.57878-.02734.875s.00911.59017.02734.88184c.02279.28711.05241.57649.08887.86816zm-8.6338-1.75c0 .60612.08431 1.18945.25293 1.75h2.48145c-.03646-.29167-.06381-.58105-.08204-.86816-.01823-.29167-.02734-.58562-.02734-.88184s.00911-.58789.02734-.875c.01823-.29167.04558-.58333.08204-.875h-2.48145c-.16862.56055-.25293 1.14388-.25293 1.75zm6.125-6.125c-.22331 0-.43294.06152-.62891.18457-.1914.12305-.36914.28483-.5332.48535s-.31217.42839-.44434.6836c-.1276.25065-.24153.50586-.34179.76562-.10026.25977-.18457.51042-.25293.75195-.06836.24154-.12077.45118-.15723.62891h4.7168c-.0365-.17773-.0889-.38737-.1572-.62891-.0684-.24153-.1527-.49218-.25296-.75195-.10026-.25976-.21647-.51497-.34863-.76562-.1276-.25521-.27344-.48308-.4375-.6836s-.34408-.3623-.54004-.48535c-.19141-.12305-.39876-.18457-.62207-.18457zm-2.00293.33496c-.38281.13216-.74967.30306-1.10059.5127-.35091.20963-.67675.44889-.97753.71777-.30079.26888-.57422.56738-.82032.89551-.24609.32357-.45573.66992-.6289 1.03906h2.27636c.05469-.27344.11849-.54915.19141-.82715.07292-.27799.15951-.55143.25977-.82031.10481-.27344.2233-.53776.35546-.79297.13217-.25521.28028-.49674.44434-.72461zm-3.52734 8.41504c.17317.3691.38281.7178.6289 1.0459.2461.3236.51953.6198.82032.8887.30078.2689.62662.5081.97753.7177.35092.2097.71778.3806 1.10059.5127-.16406-.2278-.31217-.4694-.44434-.7246-.13216-.2552-.25065-.5172-.35546-.7861-.10026-.2734-.18685-.5492-.25977-.8272-.07292-.2779-.13672-.5537-.19141-.8271zm7.53317 3.165c.3828-.1321.7497-.303 1.1006-.5127.3509-.2096.6768-.4488.9776-.7177.3007-.2689.5742-.5651.8203-.8887.2461-.3281.4557-.6768.6289-1.0459h-2.2764c-.0547.2734-.1185.5492-.1914.8271-.0729.278-.1618.5538-.2666.8272-.1003.2689-.2165.5309-.3486.7861-.1322.2552-.2803.4968-.4444.7246z" fill="#424242"/></svg>

<?xml version="1.0" encoding="UTF-8"?>
<svg width="16px" height="16px" viewBox="0 0 16 16" version="1.1" xmlns="http://www.w3.org/2000/svg" xmlns:xlink="http://www.w3.org/1999/xlink">
    <title>Artboard</title>
    <g stroke="none" stroke-width="1" fill="none" fill-rule="evenodd">
        <path d="M8,1 C8.64258,1 9.26237,1.08431 9.85938,1.25293 C10.4564,1.41699 11.0146,1.65169 11.5342,1.95703 C12.0537,2.25781 12.5254,2.6224 12.9492,3.05078 C13.3776,3.47461 13.7422,3.94629 14.043,4.46582 C14.3483,4.98535 14.583,5.54362 14.7471,6.14062 C14.9157,6.73763 15,7.35742 15,8 C15,8.64258 14.9157,9.26237 14.7471,9.85938 C14.583,10.4564 14.3483,11.0146 14.043,11.5342 C13.7422,12.0537 13.3776,12.5277 12.9492,12.9561 C12.5254,13.3799 12.0537,13.7445 11.5342,14.0498 C11.0146,14.3506 10.4564,14.5853 9.85938,14.7539 C9.26237,14.918 8.64258,15 8,15 C7.35742,15 6.73763,14.918 6.14062,14.7539 C5.54362,14.5853 4.98535,14.3506 4.46582,14.0498 C3.94629,13.7445 3.47233,13.3799 3.04395,12.9561 C2.62012,12.5277 2.25553,12.0537 1.9502,11.5342 C1.64941,11.0146 1.41471,10.4587 1.24609,9.86621 C1.08203,9.26921 1,8.64714 1,8 C1,7.35742 1.08203,6.73763 1.24609,6.14062 C1.41471,5.54362 1.64941,4.98535 1.9502,4.46582 C2.25553,3.94629 2.62012,3.47461 3.04395,3.05078 C3.47233,2.6224 3.94629,2.25781 4.46582,1.95703 C4.98535,1.65169 5.54134,1.41699 6.13379,1.25293 C6.73079,1.08431 7.35286,1 8,1 Z M13.5303,5.375 C13.3571,5.00586 13.1475,4.65951 12.9014,4.33594 C12.6553,4.00781 12.3818,3.70931 12.0811,3.44043 C11.7803,3.17155 11.4544,2.93229 11.1035,2.72266 C10.7526,2.51302 10.3857,2.34212 10.0029,2.20996 C10.167,2.43783 10.3151,2.67936 10.4473,2.93457 C10.5794,3.18978 10.6956,3.4541 10.7959,3.72754 C10.9007,3.99642 10.9896,4.26986 11.0625,4.54785 C11.1354,4.82585 11.1992,5.10156 11.2539,5.375 L13.5303,5.375 Z M14.125,8 C14.125,7.39388 14.0407,6.81055 13.8721,6.25 L11.3906,6.25 C11.4271,6.54167 11.4544,6.83333 11.4727,7.125 C11.4909,7.41211 11.5,7.70378 11.5,8 C11.5,8.29622 11.4909,8.59017 11.4727,8.88184 C11.4544,9.16895 11.4271,9.45833 11.3906,9.75 L13.8721,9.75 C14.0407,9.18945 14.125,8.60612 14.125,8 Z M8,14.125 C8.22331,14.125 8.43066,14.0635 8.62207,13.9404 C8.81803,13.8174 8.99805,13.6556 9.16211,13.4551 C9.32617,13.2546 9.47201,13.029 9.59961,12.7783 C9.73177,12.5231 9.84798,12.2656 9.94824,12.0059 C10.0485,11.7461 10.1328,11.4954 10.2012,11.2539 C10.2695,11.0124 10.3219,10.8027 10.3584,10.625 L5.6416,10.625 C5.67806,10.8027 5.73047,11.0124 5.79883,11.2539 C5.86719,11.4954 5.9515,11.7461 6.05176,12.0059 C6.15202,12.2656 6.26595,12.5231 6.39355,12.7783 C6.52572,13.029 6.67383,13.2546 6.83789,13.4551 C7.00195,13.6556 7.17969,13.8174 7.37109,13.9404 C7.56706,14.0635 7.77669,14.125 8,14.125 Z M10.5088,9.75 C10.5452,9.45833 10.5726,9.16895 10.5908,8.88184 C10.6136,8.59017 10.625,8.29622 10.625,8 C10.625,7.70378 10.6136,7.41211 10.5908,7.125 C10.5726,6.83333 10.5452,6.54167 10.5088,6.25 L5.49121,6.25 C5.45475,6.54167 5.42513,6.83333 5.40234,7.125 C5.38411,7.41211 5.375,7.70378 5.375,8 C5.375,8.29622 5.38411,8.59017 5.40234,8.88184 C5.42513,9.16895 5.45475,9.45833 5.49121,9.75 L10.5088,9.75 Z M1.875,8 C1.875,8.60612 1.95931,9.18945 2.12793,9.75 L4.60938,9.75 C4.57292,9.45833 4.54557,9.16895 4.52734,8.88184 C4.50911,8.59017 4.5,8.29622 4.5,8 C4.5,7.70378 4.50911,7.41211 4.52734,7.125 C4.54557,6.83333 4.57292,6.54167 4.60938,6.25 L2.12793,6.25 C1.95931,6.81055 1.875,7.39388 1.875,8 Z M8,1.875 C7.77669,1.875 7.56706,1.93652 7.37109,2.05957 C7.17969,2.18262 7.00195,2.3444 6.83789,2.54492 C6.67383,2.74544 6.52572,2.97331 6.39355,3.22852 C6.26595,3.47917 6.15202,3.73438 6.05176,3.99414 C5.9515,4.25391 5.86719,4.50456 5.79883,4.74609 C5.73047,4.98763 5.67806,5.19727 5.6416,5.375 L10.3584,5.375 C10.3219,5.19727 10.2695,4.98763 10.2012,4.74609 C10.1328,4.50456 10.0485,4.25391 9.94824,3.99414 C9.84798,3.73438 9.73177,3.47917 9.59961,3.22852 C9.47201,2.97331 9.32617,2.74544 9.16211,2.54492 C8.99805,2.3444 8.81803,2.18262 8.62207,2.05957 C8.43066,1.93652 8.22331,1.875 8,1.875 Z M5.99707,2.20996 C5.61426,2.34212 5.2474,2.51302 4.89648,2.72266 C4.54557,2.93229 4.21973,3.17155 3.91895,3.44043 C3.61816,3.70931 3.34473,4.00781 3.09863,4.33594 C2.85254,4.65951 2.6429,5.00586 2.46973,5.375 L4.74609,5.375 C4.80078,5.10156 4.86458,4.82585 4.9375,4.54785 C5.01042,4.26986 5.09701,3.99642 5.19727,3.72754 C5.30208,3.4541 5.42057,3.18978 5.55273,2.93457 C5.6849,2.67936 5.83301,2.43783 5.99707,2.20996 Z M2.46973,10.625 C2.6429,10.9941 2.85254,11.3428 3.09863,11.6709 C3.34473,11.9945 3.61816,12.2907 3.91895,12.5596 C4.21973,12.8285 4.54557,13.0677 4.89648,13.2773 C5.2474,13.487 5.61426,13.6579 5.99707,13.79 C5.83301,13.5622 5.6849,13.3206 5.55273,13.0654 C5.42057,12.8102 5.30208,12.5482 5.19727,12.2793 C5.09701,12.0059 5.01042,11.7301 4.9375,11.4521 C4.86458,11.1742 4.80078,10.8984 4.74609,10.625 L2.46973,10.625 Z M10.0029,13.79 C10.3857,13.6579 10.7526,13.487 11.1035,13.2773 C11.4544,13.0677 11.7803,12.8285 12.0811,12.5596 C12.3818,12.2907 12.6553,11.9945 12.9014,11.6709 C13.1475,11.3428 13.3571,10.9941 13.5303,10.625 L11.2539,10.625 C11.1992,10.8984 11.1354,11.1742 11.0625,11.4521 C10.9896,11.7301 10.9007,12.0059 10.7959,12.2793 C10.6956,12.5482 10.5794,12.8102 10.4473,13.0654 C10.3151,13.3206 10.167,13.5622 10.0029,13.79 Z" fill="#424242" fill-rule="nonzero"></path>
    </g>
</svg>
